X: 15051
T: Gerald Campbell's
R: polka
M: 2/4
K: Edorian
|:BE- ED|FD FA|BE- EA|D2 FA|
BE- ED|FD FA|Bc/B/ AF|1 E2 E2:|2 E2 FA||
|:Be- ed|fe BA|Bc/B/ AF|ED FA|
Be- ed|fe BA|Bc/B/ AF|1 E2 FA:|2 E2 E2||

